public/editor-src/editor/icons/fa/users-slash.svg

<svg xmlns="http://www.w3.org/2000/svg" viewBox="0 0 640 512"><!--! Font Awesome Free 6.4.0 by @fontawesome - https://fontawesome.com License - https://fontawesome.com/license/free (Icons: CC BY 4.0, Fonts: SIL OFL 1.1, Code: MIT License) Copyright 2023 Fonticons, Inc.--><path d="M38.8 5.1C28.4-3.1 13.3-1.2 5.1 9.2s-6.3 25.5 4.1 33.7l592 464c10.4 8.2 25.5 6.3 33.7-4.1s6.3-25.5-4.1-33.7L440.6 320h178.1c11.8 0 21.3-9.6 21.3-21.3 0-58.9-47.8-106.7-106.7-106.7h-42.6c-15.9 0-31 3.5-44.6 9.7 1.3 7.2 1.9 14.7 1.9 22.3 0 30.2-10.5 58-28 79.9l-25.2-19.7c13.3-16.5 21.2-37.4 21.2-60.2 0-53-43-96-96-96-31.1 0-58.7 14.8-76.3 37.7l-40.6-31.8c13-14.2 20.9-33.1 20.9-53.9 0-44.2-35.8-80-80-80-27.7 0-52.1 14.1-66.5 35.5L38.8 5.1zM106.7 192C47.8 192 0 239.8 0 298.7 0 310.4 9.6 320 21.3 320h214.1c-20.6-18.2-35.2-42.8-40.8-70.8L121.8 192h-15.1zm154.6 160C187.7 352 128 411.7 128 485.3c0 14.7 11.9 26.7 26.7 26.7h330.6c10.5 0 19.5-6 23.9-14.8L324.9 352h-63.6zM512 160a80 80 0 1 0 0-160 80 80 0 1 0 0 160z"/></svg>

<svg xmlns="http://www.w3.org/2000/svg" viewBox="0 0 640 512"><!--! Font Awesome Free 6.4.0 by @fontawesome - https://fontawesome.com License - https://fontawesome.com/license/free (Icons: CC BY 4.0, Fonts: SIL OFL 1.1, Code: MIT License) Copyright 2023 Fonticons, Inc. --><path d="M38.8 5.1C28.4-3.1 13.3-1.2 5.1 9.2S-1.2 34.7 9.2 42.9l592 464c10.4 8.2 25.5 6.3 33.7-4.1s6.3-25.5-4.1-33.7L440.6 320H618.7c11.8 0 21.3-9.6 21.3-21.3C640 239.8 592.2 192 533.3 192H490.7c-15.9 0-31 3.5-44.6 9.7c1.3 7.2 1.9 14.7 1.9 22.3c0 30.2-10.5 58-28 79.9l-25.2-19.7C408.1 267.7 416 246.8 416 224c0-53-43-96-96-96c-31.1 0-58.7 14.8-76.3 37.7l-40.6-31.8c13-14.2 20.9-33.1 20.9-53.9c0-44.2-35.8-80-80-80C116.3 0 91.9 14.1 77.5 35.5L38.8 5.1zM106.7 192C47.8 192 0 239.8 0 298.7C0 310.4 9.6 320 21.3 320H234.7c.2 0 .4 0 .7 0c-20.6-18.2-35.2-42.8-40.8-70.8L121.8 192H106.7zM261.3 352C187.7 352 128 411.7 128 485.3c0 14.7 11.9 26.7 26.7 26.7H485.3c10.5 0 19.5-6 23.9-14.8L324.9 352H261.3zM512 160A80 80 0 1 0 512 0a80 80 0 1 0 0 160z"/></svg>
